packages/core/src/svgs/slcl.svg

<svg width="24" height="24" viewBox="0 0 24 24" fill="none" xmlns="http://www.w3.org/2000/svg">
<g clip-path="url(#clip0_31_18857)">
<path d="M0 0H24V24H0V0Z" fill="url(#paint0_linear_31_18857)"/>
<path d="M23.7515 2.46865L23.3058 3.30008C22.9886 3.20151 21.0344 1.92008 22.2258 -0.252779C23.1772 -1.98849 24.8401 -1.58992 25.5601 -1.17421L25.0972 -0.308493C23.9915 -0.737065 23.3786 -0.132779 23.2072 0.222935C22.4015 1.26436 23.2372 2.15151 23.7515 2.46865Z" stroke="black"/>
<path d="M10.32 14.9571L11.3914 12.8999C10.4743 12.3128 8.8714 10.6113 9.80997 8.51991C10.9843 5.90562 13.2471 6.52705 14.3185 6.90848L15.3214 4.89848C13.5643 4.09705 9.62997 3.44562 7.95426 7.25562C5.94426 11.8242 8.98283 14.0013 10.1828 14.8585L10.32 14.9613V14.9571ZM8.44711 19.1056L9.4714 17.0185C10.4743 17.4385 12.7671 17.7771 13.8943 15.7842C15.3 13.2899 13.4871 11.7813 12.5571 11.1128L13.5814 9.11562C15.2443 10.1013 18.0514 12.9813 15.9814 16.5813C13.4957 20.9013 9.98568 19.6542 8.60997 19.1613L8.44711 19.1056Z" fill="white"/>
</g>
<defs>
<linearGradient id="paint0_linear_31_18857" x1="4.46571" y1="4.16143" x2="29.2071" y2="32.58" gradientUnits="userSpaceOnUse">
<stop stop-color="#1A1E21"/>
<stop offset="1" stop-color="#06060A"/>
</linearGradient>
<clipPath id="clip0_31_18857">
<rect width="24" height="24" fill="white"/>
</clipPath>
</defs>
</svg>

<svg xmlns="http://www.w3.org/2000/svg" width="24" height="24" fill="none" viewBox="0 0 24 24"><g clip-path="url(#a)"><path fill="url(#b)" d="M0 0h24v24H0z"/><path stroke="#000" d="m23.752 2.469-.446.831c-.317-.098-2.272-1.38-1.08-3.553.951-1.735 2.614-1.337 3.334-.921l-.463.866c-1.106-.43-1.718.175-1.89.53-.806 1.042.03 1.93.544 2.247Z"/><path fill="#fff" d="m10.32 14.957 1.071-2.057c-.917-.587-2.52-2.289-1.581-4.38 1.174-2.614 3.437-1.993 4.509-1.612l1.002-2.01c-1.757-.8-5.691-1.452-7.367 2.358-2.01 4.568 1.029 6.745 2.229 7.602l.137.103zm-1.873 4.149 1.024-2.088c1.003.42 3.296.76 4.423-1.234 1.406-2.494-.407-4.003-1.337-4.671l1.024-1.997c1.663.985 4.47 3.865 2.4 7.465-2.485 4.32-5.995 3.073-7.371 2.58z"/></g><defs><linearGradient id="b" x1="4.466" x2="29.207" y1="4.161" y2="32.58" gradientUnits="userSpaceOnUse"><stop stop-color="#1A1E21"/><stop offset="1" stop-color="#06060A"/></linearGradient><clipPath id="a"><path fill="#fff" d="M0 0h24v24H0z"/></clipPath></defs></svg>
